X: 27246
T: Miss Sarah McFadyen
R: jig
M: 6/8
K: Gmajor
|:c|BGE DGB|cBc dfa|gdB c2A|B/c/dB cBA|
BGE DGB|cBc dfa|gdB cAF|G2G GB:|
|:d|e2g dBG|ABc BGD|B,2D E2G|cBc ABd|
efg dBG|ABc BGD|B,2D E2G|FEF [1 GB:|2 G2||

